X:1
T:Ascribe unto the Lord, therefore
T:Ascribe unto the Lord, therefore (Joseph Key)
C:Joseph Key
Z:Text: John Hopkins, on Ps. 96
%%score [ 1 2 3 4 ]
L:1/8
M:3/2
K:C
V:1 treble nm="Soprano" snm="S."
V:2 treble nm="Alto" snm="A."
V:3 treble-8 transpose=-12 nm="Tenor" snm="T."
V:4 bass nm="Bass" snm="B."
V:1
 z4 | z12 | z12 | z12 | z12 | z12 | z12 | z12 | z12 | z12 | z12 | z12 | z12 | z12 | z8 || %15
w: |||||||||||||||
[M:2/2]"^CHORUS Verse 10Lively" E2 | G2 G2 G2 B2 | c2 c2 c2 (cB) | (A3 B AB) c2 | B4 z2 B2 | %20
w: Tell|all the world, tell|all the world, be _|not _ _ _ a-|fraid, The|
 c2 c2 c2 A2 | (G2 ^F2 G2) A2 | G4 T^F4 | G4 z4 | G4 G2 G2 | G6 G2 | c4 (dedc) | (c2 B2) z2 ^G2 | %28
w: Lord doth reign, the|Lord _ _ doth|reign a-|bove:|Yea, he the|earth so|fast hath _ _ _|stayed _ That|
 A4 d4 | c4 TB4 | A4 z2 B2 | c4 c4 | c4 (c2 B2) | A4 A4 | G4 z2 c2 | (cdcB A2) d2 | G4 G4 | G6 |] %38
w: it can|ne- ver|move, yea,|he the|earth so _|fast hath|stayed that|it _ _ _ _ can|ne- ver|move.|
V:2
"^Grave [Alto, Tenor & Bass]" C4 | (C6 D2) (E3 F) | E8 E4 | F8 (E3 F) | (E4 !fermata!D4) D4 | %5
w: Fall|down _ and _|wor- ship|ye the _|Lord _ With-|
w: A-|scribe _ un- *|to the|Lord, there- *|fore, _ All|
w: A-|scribe _ un- *|to the|Lord al- *|so _ The|
 E8 E4 | D8 (D3 C) | B,8 (C3 D) | E8 (E3 D) | (C2 B,2 C2 D2) C4 | (D3 E F4) (F3 E) | %11
w: in his|tem- ple _|bright; Let _|all the _|peo- * * * ple|of _ _ the _|
w: men with|one ac- *|cord, All _|might and _|wor- * * * ship|ev- * * er- *|
w: glo- ry|of his _|name; In- *|to his _|courts _ _ _ with|pre- * * sents _|
 (E4 !fermata!D4) D4 | (E3 F E2 F2) G4 | (F4 E4) D4 | C8 ||[M:2/2] C2 | E2 E2 E2 G2 | G2 G2 G2 G2 | %18
w: world _ Be|fear- * * * ful|at _ his|sight.||||
w: more _ A-|scribe _ _ _ un-|to _ the|Lord.|Tell|all the world, tell|all the world, be|
w: go, _ And|of- * * * fer|there _ the|same.||||
 F6 G2 | G4 z2 G2 | G2 G2 G2 E2 | D6 E2 | D4 (D2 C2) | B,4 z4 | D4 D2 D2 | E6 G2 | F4 F4 | %27
w: |||||||||
w: not a-|fraid, The|Lord doth reign, the|Lord doth|reign a- *|bove:|Yea, he the|earth so|fast hath|
w: |||||||||
 E4 z2 E2 | E4 F4 | E4 E4 | E4 z2 E2 | E4 E4 | E4 E4 | F4 (FGFE) | (E2 D2) z2 E2 | F6 A2 | %36
w: |||||||||
w: stayed That|it can|ne- ver|move, yea,|he the|earth so|fast hath _ _ _|stayed _ that|it can|
w: |||||||||
 (G2 F2) (E2 D2) | E6 |] %38
w: ||
w: ne- * ver _|move.|
w: ||
V:3
 (G3 F) | (TE6 F2) G4 | c8 G4 | (A6 B2) (c3 d) | (c4 !fermata!B4) B4 | (c3 d e2 d2) (c2 B2) | %6
w: Fall _|down _ and|wor- ship|ye _ the _|Lord _ With-|in _ _ _ his _|
w: A- *|scribe _ un-|to the|Lord, _ there- *|fore, _ All|men _ _ _ with _|
w: A- *|scribe _ un-|to the|Lord _ al- *|so _ The|glo- * * * ry _|
 (A6 G2) ^F4 | G8 G4 | (G4 c4) B4 | (A2 ^G2 A2 B2) A4 | (A4 d4) c4 | (c4 !fermata!B4) G4 | %12
w: tem- * ple|bright; Let|all _ the|peo- * * * ple|of _ the|world _ Be|
w: one _ ac-|cord, All|might _ and|wor- * * * ship|ev- * er-|more _ A-|
w: of _ his|name; In-|to _ his|courts _ _ _ with|pre- * sents|go, _ And|
 (c3 d c2 d2) e4 | (d4 c4) TB4 | c8 ||[M:2/2] G2 | c2 c2 c2 d2 | e2 e2 e2 (ed) | (c3 d cd) e2 | %19
w: fear- * * * ful|at _ his|sight.|||||
w: scribe _ _ _ un-|to _ the|Lord.|Tell|all the world, tell|all the world, be _|not _ _ _ a-|
w: of- * * * fer|there _ the|same.|||||
 d4 z2 d2 | e2 e2 e2 c2 | (B2 A2 B2) c2 | B4 TA4 | G4 z4 | B4 B2 B2 | c6 B2 | (A3 B/c/) (B2 A2) | %27
w: ||||||||
w: fraid, The|Lord doth reign, the|Lord _ _ doth|reign a-|bove:|Yea, he the|earth so|fast _ _ hath _|
w: ||||||||
 (A2 ^G2) z2 B2 | c4 (B2 A2) | A4 T^G4 | A4 z2 (G>F) | E4 (E2 F2) | G4 G4 | A4 (dedc) | %34
w: |||||||
w: stayed _ That|it can _|ne- ver|move, yea, _|he the _|earth so|fast hath _ _ _|
w: |||||||
 (c2 B2) z2 G2 | (AGAB c2) f2 | (e2 d2) (c2 B2) | c6 |] %38
w: ||||
w: stayed _ that|it _ _ _ _ can|ne- * ver _|move.|
w: ||||
V:4
 C,4 | C,8 (C,3 D,) | (TE,6 D,2) C,4 | F,8 C,4 | !fermata![G,,G,]8 G,4 | %5
w: Fall|down and _|wor- * ship|ye the|Lord With-|
w: A-|scribe un- *|to _ the|Lord, there-|fore, All|
w: A-|scribe un- *|to _ the|Lord al-|so The|
 (C,3 B,, C,2 D,2) (E,2 C,2) | D,8 D,4 | G,,8 C,4 | (C,3 D, C,2 D,2) E,4 | F,8 (F,3 E,) | %10
w: in _ _ _ his _|tem- ple|bright; Let|all _ _ _ the|peo- ple _|
w: men _ _ _ with _|one ac-|cord, All|might _ _ _ and|wor- ship _|
w: glo- * * * ry _|of his|name; In-|to _ _ _ his|courts with _|
 (D,6 E,2) F,4 | !fermata!G,8 (G,3 F,) | (TE,6 D,2) C,4 | (F,4 G,4) G,,4 | C,8 ||[M:2/2] C,2 | %16
w: of _ the|world Be _|fear- * ful|at _ his|sight.||
w: ev- * er-|more A- *|scribe _ un-|to _ the|Lord.|Tell|
w: pre- * sents|go, And _|of- * fer|there _ the|same.||
 C,2 C,2 C,2 G,2 | C2 C2 C2 E,2 | F,6 C,2 | [G,,G,]4 z2 G,2 | C2 C2 C2 C,2 | (G,2 D,2 G,2) C,2 | %22
w: ||||||
w: all the world, tell|all the world, be|not a-|fraid, The|Lord doth reign, the|Lord _ _ doth|
w: ||||||
 D,4 D,4 | G,,4 z4 | G,4 G,2 G,2 | C,6 E,2 | F,4 D,4 | E,4 z2 E,2 | A,4 D,4 | E,4 E,4 | %30
w: ||||||||
w: reign a-|bove:|Yea, he the|earth so|fast hath|stayed That|it can|ne- ver|
w: ||||||||
"^Notes: The alto part is printed in the source in the treble clef an octave above sounding pitch. Verses 7 and 10 only areunderlaid in the source (in the trio and the chorus respectively): verses 8 and 9 have been editorially underlaid in the trio,on the basis of the heading 'PSALM XCVI Verses 7 8 9 &10' in the source. The semiquaver B and C in the tenor part onbeat 1 of bar 25 are printed in the source as semiquaver grace notes (slurred to the preceding A, a minim), and havebeen written out editorially. The chorus is printed in retorted time in the source." A,,4 z2 (E,>D,) | %31
w: |
w: move, yea, _|
w: |
 C,4 (C,2 D,2) | E,4 C,4 | F,4 D,4 | G,4 z2 C,2 | F,6 D,2 | (E,2 F,2) G,4 | C,6 |] %38
w: |||||||
w: he the _|earth so|fast hath|stayed that|it can|ne- * ver|move.|
w: |||||||

